public/editor-src/editor/icons/fa/austral-sign.svg

<svg xmlns="http://www.w3.org/2000/svg" viewBox="0 0 448 512"><!--! Font Awesome Free 6.4.0 by @fontawesome - https://fontawesome.com License - https://fontawesome.com/license/free (Icons: CC BY 4.0, Fonts: SIL OFL 1.1, Code: MIT License) Copyright 2023 Fonticons, Inc.--><path d="M253.5 51.7C248.6 39.8 236.9 32 224 32s-24.6 7.8-29.5 19.7L122.7 224H32c-17.7 0-32 14.3-32 32s14.3 32 32 32h64l-13.3 32H32c-17.7 0-32 14.3-32 32s14.3 32 32 32h24l-21.5 51.7c-6.8 16.3.9 35 17.2 41.8s35-.9 41.8-17.2l31.8-76.3h197.4l31.8 76.3c6.8 16.3 25.5 24 41.8 17.2s24-25.5 17.2-41.8L392 384h24c17.7 0 32-14.3 32-32s-14.3-32-32-32h-50.7L352 288h64c17.7 0 32-14.3 32-32s-14.3-32-32-32h-90.7L253.5 51.7zM256 224h-64l32-76.8 32 76.8zm-90.7 64h117.4l13.3 32H152l13.3-32z"/></svg>

<svg xmlns="http://www.w3.org/2000/svg" viewBox="0 0 448 512"><!--! Font Awesome Free 6.4.0 by @fontawesome - https://fontawesome.com License - https://fontawesome.com/license/free (Icons: CC BY 4.0, Fonts: SIL OFL 1.1, Code: MIT License) Copyright 2023 Fonticons, Inc. --><path d="M253.5 51.7C248.6 39.8 236.9 32 224 32s-24.6 7.8-29.5 19.7L122.7 224H32c-17.7 0-32 14.3-32 32s14.3 32 32 32H96L82.7 320H32c-17.7 0-32 14.3-32 32s14.3 32 32 32H56L34.5 435.7c-6.8 16.3 .9 35 17.2 41.8s35-.9 41.8-17.2L125.3 384H322.7l31.8 76.3c6.8 16.3 25.5 24 41.8 17.2s24-25.5 17.2-41.8L392 384h24c17.7 0 32-14.3 32-32s-14.3-32-32-32H365.3L352 288h64c17.7 0 32-14.3 32-32s-14.3-32-32-32H325.3L253.5 51.7zM256 224H192l32-76.8L256 224zm-90.7 64H282.7L296 320H152l13.3-32z"/></svg>
